src/assets/filled/Cake.svg

<svg width="24" height="24" viewBox="0 0 24 24"  xmlns="http://www.w3.org/2000/svg">
<path d="M20.8901 13V14H20.0201C19.2801 14 18.6801 14.6 18.6801 15.35V15.65C18.6801 16.4 18.0801 17 17.3301 17C16.5901 17 15.9901 16.4 15.9901 15.65V15.35C15.9901 14.6 15.3801 14 14.6401 14C13.9001 14 13.3001 14.6 13.3001 15.35V15.65C13.3001 16.4 12.6901 17 11.9501 17C11.2101 17 10.6001 16.4 10.6001 15.65V15.35C10.6001 14.6 10.0001 14 9.26011 14C8.52011 14 7.91011 14.6 7.91011 15.35V15.65C7.91011 16.4 7.31011 17 6.57011 17C5.82011 17 5.22011 16.4 5.22011 15.65V15.33C5.22011 14.59 4.63011 13.99 3.90011 13.98H3.11011V13C3.11011 11.62 4.15011 10.45 5.56011 10.11C5.84011 10.04 6.13011 10 6.44011 10H17.5601C17.8701 10 18.1601 10.04 18.4401 10.11C19.8501 10.45 20.8901 11.62 20.8901 13Z" />
<path d="M18.4401 7.17V8.58C18.1501 8.52 17.8601 8.5 17.5601 8.5H6.44006C6.14006 8.5 5.85006 8.53 5.56006 8.59V7.17C5.56006 5.97 6.64006 5 7.98006 5H16.0201C17.3601 5 18.4401 5.97 18.4401 7.17Z" />
<path d="M8.75 3.55039V5.01039H7.98C7.72 5.01039 7.48 5.04039 7.25 5.10039V3.55039C7.25 3.20039 7.59 2.90039 8 2.90039C8.41 2.90039 8.75 3.20039 8.75 3.55039Z" />
<path d="M16.75 3.33008V5.10008C16.52 5.03008 16.28 5.00008 16.02 5.00008H15.25V3.33008C15.25 2.92008 15.59 2.58008 16 2.58008C16.41 2.58008 16.75 2.92008 16.75 3.33008Z" />
<path d="M12.75 2.82V5H11.25V2.82C11.25 2.37 11.59 2 12 2C12.41 2 12.75 2.37 12.75 2.82Z" />
<path d="M22 21.2505C22 21.6605 21.66 22.0005 21.25 22.0005H2.75C2.34 22.0005 2 21.6605 2 21.2505C2 20.8405 2.34 20.5005 2.75 20.5005H3.11V15.4805H3.72V15.5505C3.72 16.8905 4.6 18.1305 5.91 18.4205C6.93 18.6605 7.9 18.3305 8.56 17.6805C8.94 17.3005 9.56 17.2905 9.94 17.6705C10.46 18.1805 11.17 18.5005 11.95 18.5005C12.73 18.5005 13.44 18.1905 13.96 17.6705C14.34 17.3005 14.95 17.3005 15.34 17.6805C15.99 18.3305 16.96 18.6605 17.99 18.4205C19.3 18.1305 20.18 16.8905 20.18 15.5505V15.5005H20.89V20.5005H21.25C21.66 20.5005 22 20.8405 22 21.2505Z" />
</svg>

<?xml version="1.0" encoding="UTF-8"?>
<svg width="24" height="24" viewBox="0 0 24 24" xmlns="http://www.w3.org/2000/svg">
 <path d="m20.89 13v1h-0.87c-0.74 0-1.34 0.6-1.34 1.35v0.3c0 0.75-0.6 1.35-1.35 1.35-0.74 0-1.34-0.6-1.34-1.35v-0.3c0-0.75-0.61-1.35-1.35-1.35s-1.34 0.6-1.34 1.35v0.3c0 0.75-0.61 1.35-1.35 1.35s-1.35-0.6-1.35-1.35v-0.3c0-0.75-0.6-1.35-1.34-1.35-0.74 0-1.35 0.6-1.35 1.35v0.3c0 0.75-0.6 1.35-1.34 1.35-0.75 0-1.35-0.6-1.35-1.35v-0.32c0-0.74-0.59-1.34-1.32-1.35h-0.79v-0.98c0-1.38 1.04-2.55 2.45-2.89 0.28-0.07 0.57-0.11 0.88-0.11h11.12c0.31 0 0.6 0.04 0.88 0.11 1.41 0.34 2.45 1.51 2.45 2.89z"/>
 <path d="m18.44 7.17v1.41c-0.29-0.06-0.58-0.08-0.88-0.08h-11.12c-0.3 0-0.59 0.03-0.88 0.09v-1.42c0-1.2 1.08-2.17 2.42-2.17h8.04c1.34 0 2.42 0.97 2.42 2.17z"/>
 <path d="m8.75 3.5504v1.46h-0.77c-0.26 0-0.5 0.03-0.73 0.09v-1.55c0-0.35 0.34-0.65 0.75-0.65s0.75 0.3 0.75 0.65z"/>
 <path d="m16.75 3.3301v1.77c-0.23-0.07-0.47-0.1-0.73-0.1h-0.77v-1.67c0-0.41 0.34-0.75 0.75-0.75s0.75 0.34 0.75 0.75z"/>
 <path d="m12.75 2.82v2.18h-1.5v-2.18c0-0.45 0.34-0.82 0.75-0.82s0.75 0.37 0.75 0.82z"/>
 <path d="m22 21.25c0 0.41-0.34 0.75-0.75 0.75h-18.5c-0.41 0-0.75-0.34-0.75-0.75s0.34-0.75 0.75-0.75h0.36v-5.02h0.61v0.07c0 1.34 0.88 2.58 2.19 2.87 1.02 0.24 1.99-0.09 2.65-0.74 0.38-0.38 1-0.39 1.38-0.01 0.52 0.51 1.23 0.83 2.01 0.83s1.49-0.31 2.01-0.83c0.38-0.37 0.99-0.37 1.38 0.01 0.65 0.65 1.62 0.98 2.65 0.74 1.31-0.29 2.19-1.53 2.19-2.87v-0.05h0.71v5h0.36c0.41 0 0.75 0.34 0.75 0.75z"/>
</svg>
